Suru++-Ubuntu/apps/scalable/AddressManager.svg

<svg xmlns="http://www.w3.org/2000/svg" xmlns:xlink="http://www.w3.org/1999/xlink" width="256" height="256" version="1.1" viewBox="0 0 67.73 67.73">
 <defs>
  <linearGradient id="linearGradient3650-7-9">
   <stop style="stop-color:#5884f4" offset="0"/>
   <stop offset="1" style="stop-color:#80a3fa"/>
  </linearGradient>
  <linearGradient id="linearGradient1108" x1="296" x2="296" y1="-212" y2="236" gradientUnits="userSpaceOnUse" xlink:href="#linearGradient1013"/>
  <linearGradient id="linearGradient1013">
   <stop offset="0" style="stop-color:#ffffff"/>
   <stop style="stop-color:#ffffff;stop-opacity:0.09803922" offset=".125"/>
   <stop style="stop-color:#000000;stop-opacity:0.09803922" offset=".925"/>
   <stop offset="1" style="stop-color:#000000;stop-opacity:0.49803922"/>
  </linearGradient>
  <clipPath id="clipPath1082-3-367" clipPathUnits="userSpaceOnUse">
   <path d="M 361.9375,-212 C 507.2348,-212 528,-191.28677 528,-46.125 V 70.125 C 528,215.28618 507.2348,236 361.9375,236 H 214.0625 C 68.7652,236 48,215.28618 48,70.125 V -46.125 C 48,-191.28677 68.7652,-212 214.0625,-212 Z" style="fill:#8c59d9"/>
  </clipPath>
  <clipPath id="clipPath1025-56" clipPathUnits="userSpaceOnUse">
   <path style="fill:#8c59d9" d="M 329.9375,32 C 475.2348,32 496,52.71323 496,197.875 v 116.25 C 496,459.28618 475.2348,480 329.9375,480 H 182.0625 C 36.7652,480 16,459.28618 16,314.125 V 197.875 C 16,52.71323 36.7652,32 182.0625,32 Z"/>
  </clipPath>
  <clipPath id="clipPath4277-8-9" clipPathUnits="userSpaceOnUse">
   <rect style="opacity:0.81999972;fill:#88b637" width="512" height="512" x="0" y="0" ry="1"/>
  </clipPath>
  <filter style="color-interpolation-filters:sRGB" id="filter4261" width="1.024" height="1.024" x="-.01" y="-.01">
   <feGaussianBlur stdDeviation="2.76"/>
  </filter>
  <linearGradient id="linearGradient4273" x1="448" x2="448" y1="256" y2="496" gradientUnits="userSpaceOnUse" spreadMethod="reflect" xlink:href="#linearGradient4271"/>
  <linearGradient id="linearGradient4271">
   <stop style="stop-color:#000000" offset="0"/>
   <stop style="stop-color:#000000;stop-opacity:0" offset="1"/>
  </linearGradient>
  <linearGradient id="linearGradient4285" x1="57.714" x2="284" y1="-34" y2="544" gradientTransform="matrix(0.84848487,0,0,0.94117647,95.030308,0)" gradientUnits="userSpaceOnUse" xlink:href="#linearGradient3650-7-9"/>
  <filter style="color-interpolation-filters:sRGB" id="filter4569" width="1.023" height="1.025" x="-.01" y="-.01">
   <feGaussianBlur stdDeviation="1.16"/>
  </filter>
  <filter style="color-interpolation-filters:sRGB" id="filter929" width="1.046" height="1.05" x="-.02" y="-.03">
   <feGaussianBlur stdDeviation="2.32"/>
  </filter>
 </defs>
 <g transform="translate(0,-229.26666)">
  <path style="opacity:0.2;filter:url(#filter929)" d="m 162.53675,5.5680001 c 72.64865,0 83.03125,10.3566149 83.03125,82.9375049 v 58.125005 c 0,72.58059 -10.3826,82.9375 -83.03125,82.9375 H 88.599254 C 15.9506,229.56801 5.568,219.2111 5.568,146.63051 V 88.505505 c 0,-72.58089 10.3826,-82.9375049 83.031254,-82.9375049 z" transform="matrix(0.26458333,0,0,0.26458333,-1.8735229e-8,232.67026)"/>
  <path d="m 162.53675,3.5680001 c 72.64865,0 83.03125,10.3566149 83.03125,82.9375049 v 58.125005 c 0,72.58059 -10.3826,82.9375 -83.03125,82.9375 H 88.599254 C 15.9506,227.56801 5.568,217.2111 5.568,144.63051 V 86.505505 c 0,-72.58089 10.3826,-82.9375049 83.031254,-82.9375049 z" transform="matrix(0.26458333,0,0,0.26458333,-1.8735229e-8,232.67026)" style="opacity:0.1;filter:url(#filter4569)"/>
  <g style="enable-background:new" clip-path="url(#clipPath1025-56)" transform="matrix(0.13229167,0,0,0.13229167,-0.64346802,229.38096)">
   <rect width="176" height="152" x="336" y="-152" transform="scale(1,-1)" style="fill:#f22c42"/>
   <rect style="fill:#76c22b" width="176" height="104" x="336" y="152"/>
   <rect width="176" height="168" x="336" y="344" style="fill:#f1f0e9"/>
   <rect width="176" height="104" x="336" y="256" style="fill:#fdc92b"/>
   <g clip-path="url(#clipPath4277-8-9)" style="enable-background:new">
    <g>
     <rect style="opacity:0.1;filter:url(#filter4261)" width="560" height="544" x="-110" y="0"/>
     <rect width="560" height="544" x="-110" y="0" style="opacity:0.4;fill:url(#linearGradient4273);filter:url(#filter4275)"/>
    </g>
   </g>
   <path style="fill:url(#linearGradient4285)" d="M -40,0 H 448 V 512 H -40 Z"/>
  </g>
  <path d="M 361.9375,-212 C 507.2348,-212 528,-191.28677 528,-46.125 V 70.125 C 528,215.28618 507.2348,236 361.9375,236 H 214.0625 C 68.7652,236 48,215.28618 48,70.125 V -46.125 C 48,-191.28677 68.7652,-212 214.0625,-212 Z" clip-path="url(#clipPath1082-3-367)" transform="matrix(0.13229167,0,0,0.13229167,-4.876802,261.66013)" style="opacity:0.5;fill:none;stroke:url(#linearGradient1108);stroke-width:8;stroke-linecap:round;stroke-linejoin:round"/>
  <g transform="matrix(2.38125,0,0,2.38125,-1492.8935,-282.32321)" style="stroke:#5884f4;stroke-width:0.83333331;enable-background:new">
   <ellipse style="fill:none;stroke:#5884f4;stroke-width:0.8888889;stroke-linecap:round;stroke-linejoin:round;stroke-dashoffset:1" cx="639.95" cy="224.889" rx="3.283" ry="3.556"/>
   <path style="fill:none;stroke:#5884f4;stroke-width:0.88888896;stroke-linejoin:round;stroke-dashoffset:1" d="m 633.33333,235.55556 c 0,-3.5 1.66667,-4.44444 6.66667,-4.44444 5,0 6.66667,0.94444 6.66667,4.44444 z"/>
  </g>
  <g style="enable-background:new" transform="matrix(2.38125,0,0,2.38125,-1492.8935,-281.79404)">
   <ellipse cx="639.95" cy="224.889" rx="3.283" ry="3.556" style="fill:none;stroke:#ffffff;stroke-width:0.8888889;stroke-linecap:round;stroke-linejoin:round;stroke-dashoffset:1"/>
   <path d="m 633.33333,235.55556 c 0,-3.5 1.66667,-4.44444 6.66667,-4.44444 5,0 6.66667,0.94444 6.66667,4.44444 z" style="fill:none;stroke:#ffffff;stroke-width:0.88888896;stroke-linejoin:round;stroke-dashoffset:1"/>
  </g>
 </g>
</svg>

<svg width="256" height="256" version="1.1" viewBox="0 0 67.73 67.73" xmlns="http://www.w3.org/2000/svg" xmlns:xlink="http://www.w3.org/1999/xlink">
 <defs>
  <linearGradient id="linearGradient1108" x1="296" x2="296" y1="-212" y2="236" gradientUnits="userSpaceOnUse">
   <stop style="stop-color:#ffffff" offset="0"/>
   <stop style="stop-color:#ffffff;stop-opacity:.09803922" offset=".125"/>
   <stop style="stop-color:#000000;stop-opacity:.09803922" offset=".925"/>
   <stop style="stop-color:#000000;stop-opacity:.49803922" offset="1"/>
  </linearGradient>
  <clipPath id="clipPath1082-3-367">
   <path d="M 361.9375,-212 C 507.2348,-212 528,-191.28677 528,-46.125 V 70.125 C 528,215.28618 507.2348,236 361.9375,236 H 214.0625 C 68.7652,236 48,215.28618 48,70.125 V -46.125 C 48,-191.28677 68.7652,-212 214.0625,-212 Z" style="fill:#8c59d9"/>
  </clipPath>
  <clipPath id="clipPath1025-56">
   <path d="M 329.9375,32 C 475.2348,32 496,52.71323 496,197.875 v 116.25 C 496,459.28618 475.2348,480 329.9375,480 H 182.0625 C 36.7652,480 16,459.28618 16,314.125 V 197.875 C 16,52.71323 36.7652,32 182.0625,32 Z" style="fill:#8c59d9"/>
  </clipPath>
  <clipPath id="clipPath4277-8-9">
   <rect width="512" height="512" ry="1" style="fill:#88b637;opacity:.81999972"/>
  </clipPath>
  <filter id="filter4261" x="-.01" y="-.01" width="1.024" height="1.024" style="color-interpolation-filters:sRGB">
   <feGaussianBlur stdDeviation="2.76"/>
  </filter>
  <linearGradient id="linearGradient4273" x1="448" x2="448" y1="256" y2="496" gradientUnits="userSpaceOnUse" spreadMethod="reflect">
   <stop style="stop-color:#000000" offset="0"/>
   <stop style="stop-color:#000000;stop-opacity:0" offset="1"/>
  </linearGradient>
  <linearGradient id="linearGradient4285" x1="57.714" x2="284" y1="-34" y2="544" gradientTransform="matrix(.84848487 0 0 .94117647 95.030308 0)" gradientUnits="userSpaceOnUse">
   <stop style="stop-color:#5884f4" offset="0"/>
   <stop style="stop-color:#80a3fa" offset="1"/>
  </linearGradient>
  <filter id="filter4569" x="-.01" y="-.01" width="1.023" height="1.025" style="color-interpolation-filters:sRGB">
   <feGaussianBlur stdDeviation="1.16"/>
  </filter>
  <filter id="filter929" x="-.02" y="-.03" width="1.046" height="1.05" style="color-interpolation-filters:sRGB">
   <feGaussianBlur stdDeviation="2.32"/>
  </filter>
 </defs>
 <g transform="translate(0,-229.26666)">
  <path transform="matrix(.26458333 0 0 .26458333 -1.8735229e-8 232.67026)" d="m162.53675 5.5680001c72.64865 0 83.03125 10.356615 83.03125 82.937505v58.125005c0 72.58059-10.3826 82.9375-83.03125 82.9375h-73.937496c-72.648654 0-83.031254-10.35691-83.031254-82.9375v-58.125005c0-72.58089 10.3826-82.937505 83.031254-82.937505z" style="filter:url(#filter929);opacity:.2"/>
  <path transform="matrix(.26458333 0 0 .26458333 -1.8735229e-8 232.67026)" d="m162.53675 3.5680001c72.64865 0 83.03125 10.356615 83.03125 82.937505v58.125005c0 72.58059-10.3826 82.9375-83.03125 82.9375h-73.937496c-72.648654 0-83.031254-10.35691-83.031254-82.9375v-58.125005c0-72.58089 10.3826-82.937505 83.031254-82.937505z" style="filter:url(#filter4569);opacity:.1"/>
  <g transform="matrix(.13229167 0 0 .13229167 -.64346802 229.38096)" clip-path="url(#clipPath1025-56)" style="enable-background:new">
   <rect transform="scale(1,-1)" x="336" y="-152" width="176" height="152" style="fill:#f22c42"/>
   <rect x="336" y="152" width="176" height="104" style="fill:#76c22b"/>
   <rect x="336" y="344" width="176" height="168" style="fill:#f1f0e9"/>
   <rect x="336" y="256" width="176" height="104" style="fill:#fdc92b"/>
   <g clip-path="url(#clipPath4277-8-9)" style="enable-background:new">
    <rect x="-110" width="560" height="544" style="filter:url(#filter4261);opacity:.1"/>
    <rect x="-110" width="560" height="544" style="fill:url(#linearGradient4273);filter:url(#filter4275);opacity:.4"/>
   </g>
   <path d="m-40 0h488v512h-488z" style="fill:url(#linearGradient4285)"/>
  </g>
  <path transform="matrix(.13229167 0 0 .13229167 -4.876802 261.66013)" d="M 361.9375,-212 C 507.2348,-212 528,-191.28677 528,-46.125 V 70.125 C 528,215.28618 507.2348,236 361.9375,236 H 214.0625 C 68.7652,236 48,215.28618 48,70.125 V -46.125 C 48,-191.28677 68.7652,-212 214.0625,-212 Z" clip-path="url(#clipPath1082-3-367)" style="fill:none;opacity:.5;stroke-linecap:round;stroke-linejoin:round;stroke-width:8;stroke:url(#linearGradient1108)"/>
  <g transform="matrix(2.38125,0,0,2.38125,-1492.8935,-282.32321)" style="enable-background:new;stroke-width:.83333331;stroke:#5884f4">
   <ellipse cx="639.95" cy="224.889" rx="3.283" ry="3.556" style="fill:none;stroke-dashoffset:1;stroke-linecap:round;stroke-linejoin:round;stroke-width:.8888889;stroke:#5884f4"/>
   <path d="m633.33333 235.55556c0-3.5 1.66667-4.44444 6.66667-4.44444s6.66667 0.94444 6.66667 4.44444z" style="fill:none;stroke-dashoffset:1;stroke-linejoin:round;stroke-width:.88888896;stroke:#5884f4"/>
  </g>
  <g transform="matrix(2.38125,0,0,2.38125,-1492.8935,-281.79404)" style="enable-background:new">
   <ellipse cx="639.95" cy="224.889" rx="3.283" ry="3.556" style="fill:none;stroke-dashoffset:1;stroke-linecap:round;stroke-linejoin:round;stroke-width:.8888889;stroke:#ffffff"/>
   <path d="m633.33333 235.55556c0-3.5 1.66667-4.44444 6.66667-4.44444s6.66667 0.94444 6.66667 4.44444z" style="fill:none;stroke-dashoffset:1;stroke-linejoin:round;stroke-width:.88888896;stroke:#ffffff"/>
  </g>
 </g>
</svg>
